X:456
T:Rock On The Clyde, The
T:Brid Harper's
R:jig
C:Bobby MacLeod
Z:hn-jig-456
M:6/8
L:1/8
K:Em
GEF G2A | B2e dB/c/d | edB AGA | BGE AFD |
GEF G2A | B2e dBd | edB AGA | BGE E2F :|
|: ~g3 fed | ~e3 dBA | ~G3 AGA | BGE EGE |
DB,D GAc | BdB g2d | edB AGA | BGE E2F :|

